public/img/assets/icons/weather-conditions/small/snow-showers-day.svg

<svg width="24" height="24" viewBox="0 0 24 24" fill="none" xmlns="http://www.w3.org/2000/svg">
<path d="M10.752 20C10.9509 20 11.1416 20.079 11.2823 20.2197C11.4229 20.3603 11.502 20.5511 11.502 20.75C11.502 20.9489 11.4229 21.1397 11.2823 21.2803C11.1416 21.421 10.9509 21.5 10.752 21.5C10.553 21.5 10.3623 21.421 10.2216 21.2803C10.081 21.1397 10.002 20.9489 10.002 20.75C10.002 20.5511 10.081 20.3603 10.2216 20.2197C10.3623 20.079 10.553 20 10.752 20ZM15.252 20C15.4509 20 15.6416 20.079 15.7823 20.2197C15.9229 20.3603 16.002 20.5511 16.002 20.75C16.002 20.9489 15.9229 21.1397 15.7823 21.2803C15.6416 21.421 15.4509 21.5 15.252 21.5C15.053 21.5 14.8623 21.421 14.7216 21.2803C14.581 21.1397 14.502 20.9489 14.502 20.75C14.502 20.5511 14.581 20.3603 14.7216 20.2197C14.8623 20.079 15.053 20 15.252 20ZM8.50195 19C8.70087 19 8.89163 19.079 9.03228 19.2197C9.17294 19.3603 9.25195 19.5511 9.25195 19.75C9.25195 19.9489 9.17294 20.1397 9.03228 20.2803C8.89163 20.421 8.70087 20.5 8.50195 20.5C8.30304 20.5 8.11228 20.421 7.97162 20.2803C7.83097 20.1397 7.75195 19.9489 7.75195 19.75C7.75195 19.5511 7.83097 19.3603 7.97162 19.2197C8.11228 19.079 8.30304 19 8.50195 19ZM13.002 19C13.2009 19 13.3916 19.079 13.5323 19.2197C13.6729 19.3603 13.752 19.5511 13.752 19.75C13.752 19.9489 13.6729 20.1397 13.5323 20.2803C13.3916 20.421 13.2009 20.5 13.002 20.5C12.803 20.5 12.6123 20.421 12.4716 20.2803C12.331 20.1397 12.252 19.9489 12.252 19.75C12.252 19.5511 12.331 19.3603 12.4716 19.2197C12.6123 19.079 12.803 19 13.002 19ZM17.502 19C17.7009 19 17.8916 19.079 18.0323 19.2197C18.1729 19.3603 18.252 19.5511 18.252 19.75C18.252 19.9489 18.1729 20.1397 18.0323 20.2803C17.8916 20.421 17.7009 20.5 17.502 20.5C17.303 20.5 17.1123 20.421 16.9716 20.2803C16.831 20.1397 16.752 19.9489 16.752 19.75C16.752 19.5511 16.831 19.3603 16.9716 19.2197C17.1123 19.079 17.303 19 17.502 19Z" fill="#3FD5FE"/>
<path d="M13.0023 6.00909C16.1713 6.00909 17.9683 8.10609 18.2303 10.6391H18.3103C18.7946 10.6384 19.2742 10.7332 19.7219 10.9179C20.1695 11.1027 20.5764 11.3738 20.9192 11.7158C21.2621 12.0578 21.5342 12.464 21.72 12.9112C21.9059 13.3584 22.0018 13.8378 22.0023 14.3221C22.0017 14.8063 21.9056 15.2856 21.7198 15.7327C21.5339 16.1797 21.2617 16.5858 20.9189 16.9277C20.5761 17.2696 20.1692 17.5407 19.7217 17.7254C19.2741 17.91 18.7945 18.0048 18.3103 18.0041H7.69432C7.21014 18.0048 6.73056 17.91 6.28298 17.7254C5.83541 17.5407 5.42859 17.2696 5.08575 16.9277C4.74292 16.5858 4.47078 16.1797 4.28489 15.7327C4.09899 15.2856 4.00298 14.8063 4.00232 14.3221C4.00284 13.8378 4.09876 13.3584 4.2846 12.9112C4.47044 12.464 4.74255 12.0578 5.0854 11.7158C5.42825 11.3738 5.83511 11.1027 6.28275 10.9179C6.7304 10.7332 7.21005 10.6384 7.69432 10.6391H7.77432C8.03732 8.08909 9.83432 6.00909 13.0023 6.00909Z" fill="#3FD5FE"/>
<path d="M4.36837 10.1641C4.43783 10.3317 4.44418 10.5188 4.38627 10.6907C4.32835 10.8626 4.21008 11.0077 4.05337 11.0991L3.96237 11.1441L3.03637 11.5281C2.86086 11.6006 2.66438 11.6038 2.48658 11.5371C2.30878 11.4704 2.1629 11.3388 2.07838 11.1687C1.99386 10.9987 1.977 10.8029 2.03119 10.6209C2.08538 10.4389 2.2066 10.2842 2.37037 10.1881L2.46237 10.1421L3.38837 9.7591C3.57204 9.68291 3.77845 9.68277 3.96222 9.75871C4.14599 9.83466 4.29208 9.98047 4.36837 10.1641ZM10.8554 5.3311L10.6834 5.3891C8.89937 6.0191 7.62137 7.3941 7.06837 9.2121L6.99837 9.4621L6.94037 9.7001L6.73438 9.7391C6.13611 9.86477 5.56857 10.1074 5.06437 10.4531C4.60604 9.66533 4.43484 8.74308 4.57991 7.8433C4.72497 6.94351 5.17733 6.1218 5.86002 5.51798C6.5427 4.91416 7.41352 4.56555 8.32429 4.53148C9.23505 4.49741 10.1295 4.77998 10.8554 5.3311ZM2.94037 5.3621L3.04637 5.3971L3.97237 5.7811C4.1465 5.85409 4.28669 5.99007 4.36495 6.16189C4.44322 6.33371 4.4538 6.52873 4.39459 6.708C4.33538 6.88728 4.21073 7.03763 4.04552 7.12904C3.88032 7.22044 3.68672 7.24618 3.50337 7.2011L3.40037 7.1681L2.47437 6.7841C2.30071 6.7109 2.16097 6.57499 2.08297 6.40343C2.00496 6.23187 1.9944 6.03723 2.0534 5.85824C2.11239 5.67924 2.2366 5.52902 2.40133 5.43746C2.56606 5.3459 2.75922 5.31971 2.94237 5.3641L2.94037 5.3621ZM6.75537 2.3761L6.80137 2.4671L7.18437 3.3941C7.25585 3.56946 7.25834 3.76536 7.19136 3.94248C7.12438 4.1196 6.99288 4.26483 6.82325 4.349C6.65363 4.43318 6.45844 4.45008 6.27688 4.39631C6.09531 4.34254 5.9408 4.22207 5.84437 4.0591L5.79837 3.9681L5.41537 3.0411C5.3439 2.86575 5.34141 2.66985 5.40839 2.49273C5.47537 2.31561 5.60687 2.17038 5.7765 2.0862C5.94612 2.00202 6.14131 1.98512 6.32287 2.0389C6.50444 2.09267 6.65895 2.21313 6.75537 2.3761ZM11.1094 2.0571C11.2754 2.12601 11.4112 2.25227 11.4919 2.41287C11.5727 2.57347 11.5931 2.75773 11.5494 2.9321L11.5144 3.0371L11.1314 3.9641C11.0584 4.13823 10.9224 4.27842 10.7506 4.35668C10.5788 4.43495 10.3838 4.44553 10.2045 4.38632C10.0252 4.32711 9.87484 4.20245 9.78344 4.03725C9.69203 3.87205 9.6663 3.67845 9.71138 3.4951L9.74537 3.3891L10.1294 2.4631C10.1671 2.37209 10.2223 2.28939 10.2919 2.21973C10.3616 2.15007 10.4443 2.09481 10.5353 2.05711C10.6263 2.01941 10.7238 2 10.8223 2C10.9208 2 11.0184 2.0194 11.1094 2.0571Z" fill="#FEB800"/>
</svg>

<svg width="24" height="24" fill="none" xmlns="http://www.w3.org/2000/svg"><path d="M10.752 20a.75.75 0 1 1 0 1.5.75.75 0 0 1 0-1.5Zm4.5 0a.75.75 0 1 1 0 1.5.75.75 0 0 1 0-1.5Zm-6.75-1a.75.75 0 1 1 0 1.5.75.75 0 0 1 0-1.5Zm4.5 0a.75.75 0 1 1 0 1.5.75.75 0 0 1 0-1.5Zm4.5 0a.75.75 0 1 1 0 1.5.75.75 0 0 1 0-1.5ZM13.002 6.01c3.17 0 4.966 2.096 5.228 4.63h.08a3.687 3.687 0 0 1 3.692 3.682 3.688 3.688 0 0 1-3.692 3.682H7.694a3.688 3.688 0 0 1-3.692-3.682 3.687 3.687 0 0 1 3.692-3.683h.08c.263-2.55 2.06-4.63 5.228-4.63Z" fill="#3FD5FE"/><path d="M4.368 10.164a.75.75 0 0 1-.315.935l-.09.045-.927.384a.75.75 0 0 1-.666-1.34l.092-.046.926-.383a.75.75 0 0 1 .98.405Zm6.487-4.833-.172.058C8.9 6.02 7.621 7.394 7.068 9.212l-.07.25-.058.238-.206.04a4.64 4.64 0 0 0-1.67.713 3.942 3.942 0 0 1 5.791-5.122Zm-7.915.031.106.035.926.384a.75.75 0 0 1-.469 1.42L3.4 7.168l-.926-.384a.75.75 0 0 1 .468-1.42l-.002-.002Zm3.815-2.986.046.091.383.927a.75.75 0 0 1-1.34.665l-.046-.09-.383-.928a.75.75 0 0 1 1.34-.665Zm4.354-.319a.75.75 0 0 1 .44.875l-.035.105-.383.927a.75.75 0 0 1-1.42-.469l.034-.106.384-.926a.75.75 0 0 1 .98-.406Z" fill="#FEB800"/></svg>
